X:1
T: Barnyards of Dalgaty
C:
R:Reel
Q:232
K:D
M:4/4
L:1/8
|:A2|f3e d2A2|B2d2 B2A2|f3e d2A2|B2d2 e2A2|
f3e d2A2|B2d2 B2A2|A2A2 a3g|f2e2 d4|
a3d d2d2|f2e2 f2b2|a3d d2d2|f2a2 e4|
a3d d2d2|f2e2 f2a2|A2A2 a3g|f2e2 d4:|
